src/assets/Icons/Category-Headphone.svg

<svg width="56" height="56" viewBox="0 0 56 56" fill="none" xmlns="http://www.w3.org/2000/svg">
<g clip-path="url(#clip0_138_1572)">
<path d="M16.3334 30.3333H14C11.4227 30.3333 9.33337 32.4227 9.33337 35V42C9.33337 44.5773 11.4227 46.6666 14 46.6666H16.3334C18.9107 46.6666 21 44.5773 21 42V35C21 32.4227 18.9107 30.3333 16.3334 30.3333Z" stroke="black" stroke-width="2" stroke-linecap="round" stroke-linejoin="round"/>
<path d="M42 30.3333H39.6667C37.0893 30.3333 35 32.4227 35 35V42C35 44.5773 37.0893 46.6666 39.6667 46.6666H42C44.5773 46.6666 46.6667 44.5773 46.6667 42V35C46.6667 32.4227 44.5773 30.3333 42 30.3333Z" stroke="black" stroke-width="2" stroke-linecap="round" stroke-linejoin="round"/>
<path d="M9.33337 35V28C9.33337 23.0493 11.3 18.3013 14.8007 14.8007C18.3014 11.3 23.0493 9.33331 28 9.33331C32.9507 9.33331 37.6987 11.3 41.1994 14.8007C44.7 18.3013 46.6667 23.0493 46.6667 28V35" stroke="black" stroke-width="2" stroke-linecap="round" stroke-linejoin="round"/>
</g>
<defs>
<clipPath id="clip0_138_1572">
<rect width="56" height="56" fill="white"/>
</clipPath>
</defs>
</svg>

<svg xmlns="http://www.w3.org/2000/svg" width="56" height="56" fill="none" xmlns:v="https://vecta.io/nano"><g clip-path="url(#A)" stroke="#000" stroke-width="2" stroke-linejoin="round"><path d="M16.333 30.333H14A4.67 4.67 0 0 0 9.333 35v7A4.67 4.67 0 0 0 14 46.667h2.333A4.67 4.67 0 0 0 21 42v-7a4.67 4.67 0 0 0-4.667-4.667zm25.667 0h-2.333A4.67 4.67 0 0 0 35 35v7a4.67 4.67 0 0 0 4.667 4.667H42A4.67 4.67 0 0 0 46.667 42v-7A4.67 4.67 0 0 0 42 30.333z"/><path d="M9.333 35v-7c0-4.951 1.967-9.699 5.467-13.199S23.049 9.333 28 9.333s9.699 1.967 13.199 5.467S46.667 23.049 46.667 28v7" stroke-linecap="round"/></g><defs><clipPath id="A"><path fill="#fff" d="M0 0h56v56H0z"/></clipPath></defs></svg>
